!!!COM: Bach, Johann Sebastian
!!!CDT: 1685/3//-1750/7/28/
!!!OTL@@DE: Lobt Gott, ihr Christen, allzugleich
!!!AGN: 4-Part Chorale
!!!SCT: BH 054
!!!SCT: BWV 151
**harm	**root	**kern	**kern	**kern	**kern
!	!	!bass	!tenor	!alto	!soprno
*	*Iorgan	*Iorgan	*Iorgan	*Iorgan	*Iorgan
*	*	*clefF4	*clefF4	*clefG2	*clefG2
*k[f#c#g#d#a#e#b#]	*k[f#c#g#d#a#e#b#]	*k[f#c#g#d#a#e#b#]	*k[f#c#g#d#a#e#b#]	*k[f#c#g#d#a#e#b#]	*k[f#c#g#d#a#e#b#]
*C#:	*C#:	*C#:	*C#:	*C#:	*C#:
*M4/4	*M4/4	*M4/4	*M4/4	*M4/4	*M4/4
*met(c)	*met(c)	*met(c)	*met(c)	*met(c)	*met(c)
*MM60	*MM60	*MM60	*MM60	*MM60	*MM60
I	4GG	4c#	4e#	4g#	4cc#
=1	=1	=1	=1	=1	=1
Vb	4DD	4B#	4d#	8g#	4gg#
.	.	.	.	8a#	.
V7	4DD	4G#	8g#	4b#	4gg#
.	.	.	8f#	.	.
I	4GG	8c#	8e#	4cc#	4gg#
.	.	8d#	8f#	.	.
Ib	4GG	4e#	4g#	4cc#	4gg#
=2	=2	=2	=2	=2	=2
IV	4CC	4F#	8f#	4cc#	4aa#
.	.	.	8e#	.	.
V7	4DD	4G#	8d#	4b#	8gg#
.	.	.	8g#	.	8ff#
I;	4GG;	4c#;	4g#;	4cc#;	4ee#;
Vb	4DD	4B#	4g#	4dd#	4dd#
=3	=3	=3	=3	=3	=3
vi	4EE	4A#	4c#	4cc#	8ee#
.	.	.	.	.	8ff##
V	4DD	4G#	4d#	4b#	4gg#
vib	4EE	4c#	4e#	8a#	4aa#
.	.	.	.	8b#	.
V7/V	4AA	4d#	4f##	4cc#	4aa#
=4	=4	=4	=4	=4	=4
V;	2DD;	2G#;	2d#	2b#;	2gg#;
r	4r	4r	4r	4r	4r
V7b	4DD	4B#	8g#	4dd#	4gg#
.	.	.	8f#	.	.
=5	=5	=5	=5	=5	=5
I	4GG	4c#	4e#	4cc#	4gg#
V7c	4DD	4d#	4f#	4b#	4gg#
Ib	4GG	4e#	4g#	4cc#	4gg#
vi	4EE	4A#	4a#	4cc#	8ee#
.	.	.	.	.	8ff#
!!linebreak: 2
=6	=6	=6	=6	=6	=6
Ib	4GG	4E#	4g#	4cc#	4gg#
iib	4AA	4F#	4a#	8dd#	8ff#
.	.	.	.	8cc#	8ee#
V;	4DD;	4G#;	4d#;	4b#;	4dd#;
iii	4BB	4E#	4e#	4b#	4gg#
=7	=7	=7	=7	=7	=7
IV7	8CC	8A#	8e#	8cc#	4ff#
viio	8FF#	8B#	8d#	4dd#	.
I	4GG	4c#	8e#	.	4ee#
.	.	.	8f#	[8cc#	.
V	4DD	4G#	4g#	8cc#]	4dd#
.	.	.	.	8a#	.
viio7/VI	4DD#	4G##	4f#	4b#	4dd#
=8	=8	=8	=8	=8	=8
vi	2EE	8A#	4e#	2cc#	8cc#
.	.	8B#	.	.	8dd#
.	.	8c#	4a#	.	8ee#
.	.	8d#	.	.	8ff#
iii;	4BB;	4e#;	4g#;	4b#;	4gg#;
I	4GG	4c#	4e#	4cc#	4gg#
=9	=9	=9	=9	=9	=9
IVb	4CC	4A#	8f#	4cc#	4ff#
.	.	.	8g#	.	.
vi7d	4EE	8G#	4a#	4cc#	8ee#
.	.	8F#	.	.	8dd#
Ic	4GG	4G#	4g#	4cc#	4ee#
V7	4DD	4G#	8g#	4b#	4dd#
.	.	.	8f#	.	.
=10	=10	=10	=10	=10	=10
I;	2.GG;	2.C#;	2.e#;	2.g#;	2.cc#;
==	==	==	==	==	==
*-	*-	*-	*-	*-	*-
!!chor2scor: -l 2 -s 0.6 -o %b.pmx
!!!YEC: Copyright 2001 by Craig Stuart Sapp
!!!license: GNU General Public License (http://www.gnu.org/copyleft/gpl.html)
!!!SMA: 371 Bach Chorales, edited by Ludwig Erk, C.F. Peters
!!!PDT: 1850, 1865
!!!ONB: Harmony and Root analysis done manually by Craig Sapp
